docs/img/icons/contacts/tg-chanel.svg

<svg width="38" height="38" viewBox="0 0 38 38" fill="none" xmlns="http://www.w3.org/2000/svg">
<path d="M6.78571 0C3.97944 0 1.57106 1.70349 0.538189 4.1328C0.805274 4.09238 1.07877 4.07143 1.35714 4.07143C4.35526 4.07143 6.78571 6.50188 6.78571 9.5C6.78571 12.4981 4.35526 14.9286 1.35714 14.9286C0.888521 14.9286 0.43377 14.8692 0 14.7575V31.2143C0 34.9619 3.03807 38 6.78571 38H31.2143C34.9619 38 38 34.9619 38 31.2143V6.78571C38 3.03807 34.9619 0 31.2143 0H6.78571ZM10.8571 14.9286C10.8571 14.179 11.4648 13.5714 12.2143 13.5714H25.7857C26.5351 13.5714 27.1429 14.179 27.1429 14.9286C27.1429 15.6781 26.5351 16.2857 25.7857 16.2857H12.2143C11.4648 16.2857 10.8571 15.6781 10.8571 14.9286ZM12.2143 21.7143H20.3571C21.1066 21.7143 21.7143 22.322 21.7143 23.0714C21.7143 23.8208 21.1066 24.4286 20.3571 24.4286H12.2143C11.4648 24.4286 10.8571 23.8208 10.8571 23.0714C10.8571 22.322 11.4648 21.7143 12.2143 21.7143Z" fill="#00C35B"/>
</svg>

<svg width="38" height="38" fill="none" xmlns="http://www.w3.org/2000/svg"><path d="M6.786 0A6.788 6.788 0 00.538 4.133 5.429 5.429 0 110 14.758v16.456A6.786 6.786 0 006.786 38h24.428A6.786 6.786 0 0038 31.214V6.786A6.786 6.786 0 0031.214 0H6.786zm4.071 14.929c0-.75.608-1.358 1.357-1.358h13.572a1.357 1.357 0 010 2.715H12.214c-.75 0-1.357-.608-1.357-1.357zm1.357 6.785h8.143a1.357 1.357 0 010 2.715h-8.143a1.357 1.357 0 010-2.715z" fill="#00C35B"/></svg>
